symbols/web/person_add_disabled/materialsymbolsoutlined/person_add_disabled_wght100gradN25_48px.svg

<svg xmlns="http://www.w3.org/2000/svg" height="48" width="48"><path d="m38 42.35-7.2-7.2v1.25H4v-2.35q0-1.1.675-2.075Q5.35 31 6.55 30.45q2.9-1.3 5.55-1.95 2.65-.65 5.25-.65 1.8 0 3.6.3t3.65.8l-6.7-6.6q-.15.05-.25.05h-.25q-2.3 0-3.775-1.5t-1.475-3.75v-.3q0-.15.05-.35L4.8 9.1l.8-.75 33.2 33.2ZM36.85 26.7v-6.15H30.7v-1.1h6.15V13.3h1.1v6.15h6.15v1.1h-6.15v6.15Zm-14.8-7.1-.8-.8q.1-.45.2-.85.1-.4.1-.8 0-1.75-1.2-2.95-1.2-1.2-2.95-1.2-.5 0-.925.075-.425.075-.725.225l-.8-.8q.45-.3 1.075-.45.625-.15 1.375-.15 2.2 0 3.725 1.475t1.525 3.775q0 .7-.175 1.325T22.05 19.6ZM5.1 35.3h24.6v-1.25l-3.3-3.2q-2.1-.95-4.375-1.425-2.275-.475-4.675-.475-2.6 0-5.15.575-2.55.575-5.15 1.825-1 .55-1.475 1.25-.475.7-.475 1.45Zm16.15-16.5ZM17.4 28.95Z"/></svg>

<svg xmlns="http://www.w3.org/2000/svg" height="48" width="48"><path d="M38 42.35 30.8 35.15V36.4H4V34.05Q4 32.95 4.675 31.975Q5.35 31 6.55 30.45Q9.45 29.15 12.1 28.5Q14.75 27.85 17.35 27.85Q19.15 27.85 20.95 28.15Q22.75 28.45 24.6 28.95L17.9 22.35Q17.75 22.4 17.65 22.4Q17.55 22.4 17.4 22.4Q15.1 22.4 13.625 20.9Q12.15 19.4 12.15 17.15Q12.15 17 12.15 16.85Q12.15 16.7 12.2 16.5L4.8 9.1L5.6 8.35L38.8 41.55ZM36.85 26.7V20.55H30.7V19.45H36.85V13.3H37.95V19.45H44.1V20.55H37.95V26.7ZM22.05 19.6 21.25 18.8Q21.35 18.35 21.45 17.95Q21.55 17.55 21.55 17.15Q21.55 15.4 20.35 14.2Q19.15 13 17.4 13Q16.9 13 16.475 13.075Q16.05 13.15 15.75 13.3L14.95 12.5Q15.4 12.2 16.025 12.05Q16.65 11.9 17.4 11.9Q19.6 11.9 21.125 13.375Q22.65 14.85 22.65 17.15Q22.65 17.85 22.475 18.475Q22.3 19.1 22.05 19.6ZM5.1 35.3H29.7V34.05L26.4 30.85Q24.3 29.9 22.025 29.425Q19.75 28.95 17.35 28.95Q14.75 28.95 12.2 29.525Q9.65 30.1 7.05 31.35Q6.05 31.9 5.575 32.6Q5.1 33.3 5.1 34.05ZM21.25 18.8Q21.25 18.8 21.25 18.8Q21.25 18.8 21.25 18.8Q21.25 18.8 21.25 18.8Q21.25 18.8 21.25 18.8Q21.25 18.8 21.25 18.8Q21.25 18.8 21.25 18.8ZM17.4 28.95Q17.4 28.95 17.4 28.95Q17.4 28.95 17.4 28.95Q17.4 28.95 17.4 28.95Q17.4 28.95 17.4 28.95Q17.4 28.95 17.4 28.95Q17.4 28.95 17.4 28.95Z"/></svg>
